X:22
T:Disappointment. ET.22
M:3/4
L:1/8
Q:1/4=90
S:Eliza Tennyson MS, Lincolnshire,1822
R:Song
C:Poem by William Shenstone
N:Untitled in MS
O:England;Lincolnshire;Somersby
Z:vmp.R.Greig 2011 <http://www.village-music-project.org.uk>
K:Eb
B2|g3de2|{d}c2B2A2|G4A2|B2AG FE|c2c2a{g/}f|{e}d4B> B|!
w:Ye shep-herd give ear to my lay And take n-o m-ore heed of m-y sheep They have
g3d e2|cd/e/B2A2|{A}G4B> E”^bar line added”|c>ee2e>B|cB/A/G2F2|”^bar line added”E4G>A|!
w:no-thing to d–o but to stray I have no–thing t-o d–o but to weep Y-et
B2B2B2|e>d e>g fe|{e}d4B B|ce ecc2|Be eB AG|{G}F4B2|!
w:do not my fol—ly re–prove She was f-air a-nd my pas—sion be–gun She
g3d e2|c2B2E2|(A>GA2)zF|G>BB2zA|G3AF2|E4|]
w:smiled & I could not but l–ove She faith–less and I am un-done.

